dist/svg/u1F1F4.svg

<svg id="Layer_1" data-name="Layer 1" xmlns="http://www.w3.org/2000/svg" viewBox="0 0 40 40"><defs><style>.cls-1{fill:#afb7c0;}.cls-2{fill:none;}</style></defs><path class="cls-1" d="M28.5,7.1a4.405,4.405,0,0,1,4.4,4.4v17a4.405,4.405,0,0,1-4.4,4.4h-17a4.405,4.405,0,0,1-4.4-4.4v-17a4.405,4.405,0,0,1,4.4-4.4h17m0-3.6h-17a8,8,0,0,0-8,8v17a8,8,0,0,0,8,8h17a8,8,0,0,0,8-8v-17a8,8,0,0,0-8-8Z"/><path class="cls-1" d="M10.964,20.08c0-6.217,4.272-9.337,9.049-9.337,4.753,0,9.025,3.12,9.025,9.337,0,6.169-4.272,9.289-9.025,9.289C15.236,29.369,10.964,26.249,10.964,20.08Zm9.049,6.048c2.665,0,5.064-1.512,5.064-6.048,0-4.56-2.4-6.1-5.064-6.1-2.688,0-5.088,1.537-5.088,6.1C14.925,24.616,17.325,26.128,20.013,26.128Z"/><rect class="cls-2" width="40" height="40"/></svg>

<?xml version="1.0" encoding="UTF-8"?><svg id="a" xmlns="http://www.w3.org/2000/svg" viewBox="0 0 40 40"><g><path d="M28.5,3.5H11.5C7.082,3.5,3.5,7.082,3.5,11.5V28.5c0,4.418,3.582,8,8,8H28.5c4.418,0,8-3.582,8-8V11.5c0-4.418-3.582-8-8-8Zm4.4,25c0,2.426-1.974,4.4-4.4,4.4H11.5c-2.426,0-4.4-1.974-4.4-4.4V11.5c0-2.426,1.974-4.4,4.4-4.4H28.5c2.426,0,4.4,1.974,4.4,4.4V28.5Z" fill="#afb7c0"/><path d="M20.013,10.743c-4.776,0-9.049,3.12-9.049,9.337,0,6.168,4.272,9.289,9.049,9.289s9.025-3.12,9.025-9.289c0-6.217-4.272-9.337-9.025-9.337Zm0,15.385c-2.688,0-5.088-1.512-5.088-6.048,0-4.561,2.4-6.097,5.088-6.097,2.665,0,5.064,1.536,5.064,6.097,0,4.536-2.399,6.048-5.064,6.048Z" fill="#afb7c0"/></g><rect width="40" height="40" fill="none"/></svg>
